assets/img/features/ico-dashboard.svg

<?xml version="1.0" encoding="UTF-8"?>
<svg width="18" height="19" version="1.1" viewBox="0 0 18 19" xmlns="http://www.w3.org/2000/svg" xmlns:cc="http://creativecommons.org/ns#" xmlns:dc="http://purl.org/dc/elements/1.1/" xmlns:rdf="http://www.w3.org/1999/02/22-rdf-syntax-ns#">
 <metadata>
  <rdf:RDF>
   <cc:Work rdf:about="">
    <dc:format>image/svg+xml</dc:format>
    <dc:type rdf:resource="http://purl.org/dc/dcmitype/StillImage"/>
    <dc:title/>
   </cc:Work>
  </rdf:RDF>
 </metadata>
 <defs>
  <filter id="8uoulr53ua" color-interpolation-filters="auto">
   <feColorMatrix in="SourceGraphic" values="0 0 0 0 0.764706 0 0 0 0 0.227451 0 0 0 0 0.160784 0 0 0 1.000000 0"/>
  </filter>
 </defs>
 <g fill="none" fill-rule="evenodd" stroke-linecap="round" stroke-linejoin="round">
  <g transform="translate(-237 -18)" filter="url(#8uoulr53ua)">
   <path transform="translate(237.9 19.4)" d="m0 0h16v16h-16zm5.35 5.35v10.65m5.3-10.65v10.65m-10.65-5.35h16m-16-5.3h16" stroke="#FFF" stroke-width="1.4"/>
  </g>
 </g>
</svg>

<?xml version="1.0" encoding="UTF-8" standalone="no"?>
<svg
   xmlns:dc="http://purl.org/dc/elements/1.1/"
   xmlns:cc="http://creativecommons.org/ns#"
   xmlns:rdf="http://www.w3.org/1999/02/22-rdf-syntax-ns#"
   xmlns:svg="http://www.w3.org/2000/svg"
   xmlns="http://www.w3.org/2000/svg"
   id="svg855"
   version="1.1"
   viewBox="0 0 18 19"
   height="19"
   width="18">
  <metadata
     id="metadata859">
    <rdf:RDF>
      <cc:Work
         rdf:about="">
        <dc:format>image/svg+xml</dc:format>
        <dc:type
           rdf:resource="http://purl.org/dc/dcmitype/StillImage" />
        <dc:title></dc:title>
      </cc:Work>
    </rdf:RDF>
  </metadata>
  <defs
     id="defs841">
    <filter
       color-interpolation-filters="auto"
       id="8uoulr53ua">
      <feColorMatrix
         id="feColorMatrix838"
         values="0 0 0 0 0.764706 0 0 0 0 0.227451 0 0 0 0 0.160784 0 0 0 1.000000 0"
         in="SourceGraphic" />
    </filter>
  </defs>
  <g
     id="g853"
     stroke-linejoin="round"
     stroke-linecap="round"
     fill-rule="evenodd"
     fill="none">
    <g
       id="g851">
      <g
         id="g849">
        <g
           id="g847"
           transform="translate(-473 -1750) translate(0 1454) translate(236 278)"
           filter="url(#8uoulr53ua)">
          <g
             id="g845">
            <path
               id="path843"
               transform="translate(237.9 19.4)"
               d="M0 0H16V16H0zM5.35 5.35L5.35 16M10.65 5.35L10.65 16M0 10.65L16 10.65M0 5.35L16 5.35"
               stroke-width="1.4"
               stroke="#FFF" />
          </g>
        </g>
      </g>
    </g>
  </g>
</svg>
